X:1
T:Title
%%score { 1 | ( 2 3 ) }
L:1/8
M:4/4
K:Eb
V:1 treble nm="Grand Piano"
V:2 bass 
V:3 bass 
V:1
 z4 z2 z[Q:1/4=104] G | GGGG [EGB]3 [DFA] | [DF]6 z [EG] | [FA][FA][FA][FA] [DAc]3 [EGB] | %4
[M:7/8] G-G-G- G3 z |[M:1/8] G |[M:4/4] GGGG A3 B | c6 z c | BBBG [DF]2 [FA]2 | [EG]6 z2 | %10
 [GB]4 G2 z2 | G4 E2 z G | A4 A4 | G6 z G | [DF][EG] [FA]2- [FA][DF][EG][DAc] | [GB]6 z2 | %16
 [GB]4 G2 z2 | G4 E2 z E | G4 A2 B2 | c6 z c | BG [DB]2- [DB][DA][EG][DF] | %21
[M:7/8] [B,E]-[B,E]-[B,E]- [B,E]3 z |] %22
V:2
 z4 z2 z [E,B,E] | [E,B,E][E,B,E][E,B,E][E,B,E] B,,3 B,, | [B,,B,]6 z [B,,B,] | %3
 [B,,B,][B,,B,][B,,B,][B,,B,] B,,3 B,, |[M:7/8] [E,B,E]-[E,B,E]-[E,B,E]- [E,B,E]3 z | %5
[M:1/8] [E,B,E] |[M:4/4] [E,B,E][E,B,E][E,B,E][E,B,E] [F,B,D]3[K:treble] [G,B,E] | %7
 [A,E]6 z [A,EA] | [B,EG][B,EG][B,EG][K:bass][B,E] [B,,B,]2 [B,,B,]2 | [E,B,]6 z2 | %10
 [E,E]4 [E,B,E]2 z2 | [E,B,E]4 [E,G,B,]2 z [E,B,E] | [E,CE]4 [E,=B,E]4 | [E,B,E]6 z [E,B,E] | %14
 [B,,B,][B,,B,] [B,,B,]2- [B,,B,][B,,B,][B,,B,]B,, | [E,E]6 z2 | [E,E]4 [E,B,E]2 z2 | %17
 [E,B,E]4 [E,G,B,]2 z [E,G,B,] | [E,B,E]4 B,2- [G,B,E]2 | [A,E]6 z [A,EA] | %20
 [B,EG][K:bass][B,E] [B,,B,]2- [B,,B,][B,,F,][B,,B,][B,,A,] | %21
[M:7/8] [E,G,]-[E,G,]-[E,G,]- [E,G,]3 z |] %22
V:3
 x8 | x8 | x8 | x8 |[M:7/8] x7 |[M:1/8] x |[M:4/4] x7[K:treble] x | x8 | x3[K:bass] x5 | x8 | x8 | %11
 x8 | x8 | x8 | x8 | x8 | x8 | x8 | z4 [F,D]2 z2 | x8 | x[K:bass] x7 |[M:7/8] x7 |] %22

